src/48x48/places/folder-gruvbox-original-purple-wine.svg

<?xml version="1.0" encoding="UTF-8"?>
<svg width="48" height="48" version="1" xmlns="http://www.w3.org/2000/svg">
 <rect x="4" y="17" width="40" height="26" rx="2" ry="2" opacity=".2"/>
 <path d="m4 34c0 1.108 0.892 2 2 2h36c1.108 0 2-0.892 2-2v-22c0-1.108-0.892-2-2-2h-18c-3 0-4-4-7-4h-11c-1.108 0-2 0.892-2 2" fill="#8f3f71"/>
 <rect x="4" y="15" width="40" height="26" rx="2" ry="2" opacity=".2"/>
 <rect x="6" y="13" width="36" height="16" rx="2" ry="2" fill="#E1D4B6"/>
 <rect x="4" y="16" width="40" height="26" rx="2" ry="2" fill="#d3869b"/>
 <path d="m6 6c-1.108 0-2 0.892-2 2v1c0-1.108 0.892-2 2-2h11c3 0 4 4 7 4h18c1.108 0 2 0.892 2 2v-1c0-1.108-0.892-2-2-2h-18c-3 0-4-4-7-4z" fill="#E1D4B6" opacity=".1"/>
 <path d="m20 22s-1 1-1 3c0 2.419 1.7177 4.4372 4 4.9004v5.0996h-2v1h6v-1h-2v-5.0996c2.2823-0.46322 4-2.4814 4-4.9004 0-2-1-3-1-3h-8z" fill="#393534"/>
</svg>

<svg xmlns="http://www.w3.org/2000/svg" width="48" height="48" version="1">
 <rect style="opacity:0.2" width="40" height="26" x="4" y="17" rx="2" ry="2"/>
 <path style="fill:#8f3f71" d="M 4,34 C 4,35.108 4.892,36 6,36 H 42 C 43.108,36 44,35.108 44,34 V 12 C 44,10.892 43.108,10 42,10 H 24 C 21,10 20,6 17,6 H 6 C 4.892,6 4,6.892 4,8"/>
 <rect style="opacity:0.2" width="40" height="26" x="4" y="15" rx="2" ry="2"/>
 <rect style="fill:#E1D4B6" width="36" height="16" x="6" y="13" rx="2" ry="2"/>
 <rect style="fill:#d3869b" width="40" height="26" x="4" y="16" rx="2" ry="2"/>
 <path style="opacity:0.1;fill:#E1D4B6" d="M 6,6 C 4.892,6 4,6.892 4,8 V 9 C 4,7.892 4.892,7 6,7 H 17 C 20,7 21,11 24,11 H 42 C 43.108,11 44,11.892 44,13 V 12 C 44,10.892 43.108,10 42,10 H 24 C 21,10 20,6 17,6 Z"/>
 <path style="fill:#393534" d="M 20 22 C 20 22 19 23 19 25 C 19 27.419003 20.717696 29.43717 23 29.900391 L 23 35 L 21 35 L 21 36 L 27 36 L 27 35 L 25 35 L 25 29.900391 C 27.282304 29.43717 29 27.419003 29 25 C 29 23 28 22 28 22 L 20 22 z"/>
</svg>
